X:29
T:Three Sea Captains
Z: id:dc-setdance-30
M:6/8
L:1/8
K:G Major
D|GFG BGB|c2A F2D|GFG BGB|d2B G2B|!
[1 cec A2c|BdB G2B|A2B c2B|ABG FE:|!
[2 cec A2c|BdB G2F|EcB AGF|G3 G2|]!
d|gfg dcB|ABc def|gfg dBd|e2c A2d|!
g2a bge|f2g afd|egf ed^c|d3 dcB|!
c2d ecA|B2c dBG|A2B c2B|ABG FE|]!

